X: 189
T: De l'oeil de la fille du roy
N: Derived from Rue3006-De_loeil_de_la_fille_du_roy.krn
C: Pierre de la Rue
%%abc-version 2.0
%%abcx-abcm2ps-target-version 5.9.1 (29 Sep 2008)
%%abc-creator hum2abc beta
%%abcx-conversion-date 2019/02/17 08:01:17
%%abc-edited-by Jesse Rodin
%%abc-edited-by Chris Gage 06-17-2013
%%abcx-initial-encoding-date 2013/08/06/
%%humdrum-veritas 2314704899
%%humdrum-veritas-data 638409236
%%linebreak <none>
%%barnumbers 0
L: 1/4
M: 2/1
Q: 1/2=120
%%staves [1 2 3 4]
V: 1 clef=treble
V: 2 clef=treble-8
V: 3 clef=treble-8
V: 4 clef=bass
K: C
[V:1] z4D4- | 
[V:2] D6F2- | 
[V:3] z8 | 
[V:4] z8 | 
[V:1] D2F4ED | 
[V:2] F2EDF3G | 
[V:3] z8 | 
[V:4] z8 | 
[V:1] F3GA4 | 
[V:2] A2_B2A2d2- | 
[V:3] z4D4- | 
[V:4] z8 | 
[V:1] z2A4GF | 
[V:2] d2cBd4 | 
[V:3] D2F4ED | 
[V:4] z8 | 
[V:1] A3Bc4- | 
[V:2] z2c4BA | 
[V:3] F3GA4 | 
[V:4] z4A,,4- | 
[V:1] c2BAc4 | 
[V:2] c3de4 | 
[V:3] z4z2c2- | 
[V:4] A,,2C,4B,,A,, | 
[V:1] z2G3Ac2 | 
[V:2] e4e4- | 
[V:3] c2BAc3d | 
[V:4] C,3D,E,4 | 
[V:1] B2A4^G2 | 
[V:2] e4e4- | 
[V:3] e2dcB4 | 
[V:4] E,8 | 
[V:1] A4E4 | 
[V:2] e2c4BA | 
[V:3] A8 | 
[V:4] A,,4z2A,,2 | 
[V:1] G4G4 | 
[V:2] B3AB2c2 | 
[V:3] z8 | 
[V:4] E,4E,4 | 
[V:1] F8 | 
[V:2] A4d4 | 
[V:3] z4A4 | 
[V:4] F,3E,D,4 | 
[V:1] E3FG2A2- | 
[V:2] z2G4FE | 
[V:3] c4c4 | 
[V:4] C,4z2C,2 | 
[V:1] A2G4F2 | 
[V:2] F2G2E2F2- | 
[V:3] B4A4- | 
[V:4] D,2E,2C,2D,2 | 
[V:1] E2DCD4 | 
[V:2] F2E4D2 | 
[V:3] A4^G4 | 
[V:4] C,2A,,2B,,4 | 
[V:1] C8 | 
[V:2] E4z4 | 
[V:3] A8 | 
[V:4] A,,4z2F,2- | 
[V:1] z8 | 
[V:2] z8 | 
[V:3] z2c4BA | 
[V:4] F,2E,D,C,2D,2 | 
[V:1] z8 | 
[V:2] z8 | 
[V:3] G2A2B2E2- | 
[V:4] E,4E,4 | 
[V:1] z8 | 
[V:2] z2f4ed | 
[V:3] E2A4^G2 | 
[V:4] C,2A,,2B,,4 | 
[V:1] z2c4BA | 
[V:2] c3de4- | 
[V:3] A4z2c2- | 
[V:4] A,,8 | 
[V:1] G3AB4- | 
[V:2] e4e4 | 
[V:3] c2BAG2A2 | 
[V:4] z4E,4 | 
[V:1] B4B4 | 
[V:2] e4g4- | 
[V:3] B8 | 
[V:4] E,4E,4- | 
[V:1] B4d4- | 
[V:2] g2fed4- | 
[V:3] B4B4- | 
[V:4] E,2D,C,B,,2A,,2 | 
[V:1] d4d4 | 
[V:2] d2g3fde | 
[V:3] B4B4 | 
[V:4] G,,4G,,4 | 
[V:1] c6BA | 
[V:2] f2e3cd2 | 
[V:3] A6GF | 
[V:4] A,,4z4 | 
[V:1] G2A3GG2- | 
[V:2] e2c4B2 | 
[V:3] E3FG4 | 
[V:4] z4C,4 | 
[V:1] G2^F2G4 | 
[V:2] A4e2e2- | 
[V:3] z4G4 | 
[V:4] D,4E,4 | 
[V:1] z8 | 
[V:2] e2d2e4- | 
[V:3] A4B4 | 
[V:4] F,4E,4 | 
[V:1] z4z2G2 | 
[V:2] e8 | 
[V:3] c6B2- | 
[V:4] A,,2E,4E,2 | 
[V:1] A4B4 | 
[V:2] z8 | 
[V:3] B2A4^G2 | 
[V:4] D,3C,B,,4 | 
[V:1] c4c2B2- | 
[V:2] z8 | 
[V:3] A2e6 | 
[V:4] A,,4C,4 | 
[V:1] B2A4^G2 | 
[V:2] z8 | 
[V:3] d3cB4 | 
[V:4] D,4E,4 | 
[V:1] A4z4 | 
[V:2] z4c4 | 
[V:3] A4z4 | 
[V:4] F,4F,2E,2- | 
[V:1] z8 | 
[V:2] d4e4 | 
[V:3] z8 | 
[V:4] E,2D,4C,2 | 
[V:1] z8 | 
[V:2] f6e2- | 
[V:3] z8 | 
[V:4] D,2A,6 | 
[V:1] z8 | 
[V:2] e2d4^c2 | 
[V:3] z8 | 
[V:4] G,3F,E,4 | 
[V:1] !fermata!z8 | 
[V:2] !fermata!d4z2d2 | 
[V:3] !fermata!z4A4 | 
[V:4] !fermata!D,8 | 
[V:1] z8 | 
[V:2] d3ef2g2- | 
[V:3] B4B2B2 | 
[V:4] z8 | 
[V:1] z8 | 
[V:2] g2f2g4- | 
[V:3] A4G3A | 
[V:4] D,4E,4 | 
[V:1] z8 | 
[V:2] g4f4 | 
[V:3] B2c4B2 | 
[V:4] E,2E,2D,4 | 
[V:1] z8 | 
[V:2] e3fgef2- | 
[V:3] c3BG2B2 | 
[V:4] C,4C,2D,2- | 
[V:1] z4A4 | 
[V:2] f2edc4 | 
[V:3] A2G4^F2 | 
[V:4] D,2C,B,,A,,4 | 
[V:1] B4B2B2 | 
[V:2] z8 | 
[V:3] G8 | 
[V:4] G,,8 | 
[V:1] A2A2G3A | 
[V:2] d4e4 | 
[V:3] z8 | 
[V:4] z8 | 
[V:1] B2c4B2 | 
[V:2] e2e2d4 | 
[V:3] z4G4 | 
[V:4] z8 | 
[V:1] c3BGAB2 | 
[V:2] c3de2f2- | 
[V:3] A3Bc2d2- | 
[V:4] z8 | 
[V:1] A2G4^F2 | 
[V:2] fedcd4 | 
[V:3] d2cBA4 | 
[V:4] z4D,4 | 
[V:1] G2E4F2- | 
[V:2] z8 | 
[V:3] G4A4- | 
[V:4] E,4C,2D,2- | 
[V:1] FEF4ED | 
[V:2] z4D4 | 
[V:3] A4G4 | 
[V:4] D,C,A,,2_B,,4 | 
[V:1] C8 | 
[V:2] E4E4 | 
[V:3] A4z2c2- | 
[V:4] A,,2C,4B,,2 | 
[V:1] z4z2c2- | 
[V:2] F2G2A4- | 
[V:3] c2B2A2G2 | 
[V:4] A,,2G,,2F,,4- | 
[V:1] c2B2A2G2 | 
[V:2] A2GFc4 | 
[V:3] F4F4 | 
[V:4] F,,8- | 
[V:1] F8 | 
[V:2] z2c4BA | 
[V:3] A6GF | 
[V:4] F,,4F,,4 | 
[V:1] G4E2E2- | 
[V:2] e3dc3B | 
[V:3] E2G4G2 | 
[V:4] C,3D,E,4 | 
[V:1] E2D2E2G2- | 
[V:2] A4B4- | 
[V:3] A2A2G4 | 
[V:4] F,4E,2E,2- | 
[V:1] G4A2A2 | 
[V:2] B4z4 | 
[V:3] z2e2c2d2 | 
[V:4] E,2E,2F,2F,2 | 
[V:1] G4z2G2- | 
[V:2] z4z2e2- | 
[V:3] e4B4 | 
[V:4] E,4E,4 | 
[V:1] G2G2A2A2 | 
[V:2] e4c2d2 | 
[V:3] E2E2F2F2 | 
[V:4] z8 | 
[V:1] G4z2G2 | 
[V:2] e4B4 | 
[V:3] E4z4 | 
[V:4] z2E,4E,2- | 
[V:1] G2G2A4 | 
[V:2] z2e2c2d2 | 
[V:3] z8 | 
[V:4] E,2E,2F,2F,2 | 
[V:1] G3FEDG2- | 
[V:2] e4B2e2- | 
[V:3] z2G2G2G2 | 
[V:4] E,4z2E,2 | 
[V:1] GEF4E2- | 
[V:2] e2d2B2c2 | 
[V:3] A2A2G3E | 
[V:4] C,2D,2E,2C,2 | 
[V:1] E2D4^C2 | 
[V:2] BA2GA4 | 
[V:3] F2D2E4 | 
[V:4] D,2B,,2A,,4 | 
[V:1] D8- | 
[V:2] A8- | 
[V:3] D8- | 
[V:4] z4D,4 | 
[V:1] D8 |]  
[V:2] A8 |]  
[V:3] D8 |]  
[V:4] D,8 |]  



